src/assets/filled/SearchStatus1.svg

<svg width="24" height="24" viewBox="0 0 24 24"  xmlns="http://www.w3.org/2000/svg">
<path d="M11 1.99023C6.02999 1.99023 1.98999 6.03023 1.98999 11.0002C1.98999 15.9702 6.02999 20.0102 11 20.0102C15.97 20.0102 20.01 15.9702 20.01 11.0002C20.01 6.03023 15.97 1.99023 11 1.99023ZM11 13.2502H7.99999C7.58999 13.2502 7.24999 12.9102 7.24999 12.5002C7.24999 12.0902 7.58999 11.7502 7.99999 11.7502H11C11.41 11.7502 11.75 12.0902 11.75 12.5002C11.75 12.9102 11.41 13.2502 11 13.2502ZM14 10.2502H7.99999C7.58999 10.2502 7.24999 9.91023 7.24999 9.50023C7.24999 9.09023 7.58999 8.75023 7.99999 8.75023H14C14.41 8.75023 14.75 9.09023 14.75 9.50023C14.75 9.91023 14.41 10.2502 14 10.2502Z" />
<path d="M21.9901 18.95C21.6601 18.34 20.9601 18 20.0201 18C19.3101 18 18.7001 18.29 18.3401 18.79C17.9801 19.29 17.9001 19.96 18.1201 20.63C18.5501 21.93 19.3001 22.22 19.7101 22.27C19.7701 22.28 19.8301 22.28 19.9001 22.28C20.3401 22.28 21.0201 22.09 21.6801 21.1C22.2101 20.33 22.3101 19.56 21.9901 18.95Z" />
</svg>

<?xml version="1.0" encoding="UTF-8"?>
<svg width="24" height="24" viewBox="0 0 24 24" xmlns="http://www.w3.org/2000/svg">
 <path d="m11 1.9902c-4.97 0-9.01 4.04-9.01 9.01 0 4.97 4.04 9.01 9.01 9.01 4.97 0 9.01-4.04 9.01-9.01 0-4.97-4.04-9.01-9.01-9.01zm0 11.26h-3c-0.41 0-0.75-0.34-0.75-0.75s0.34-0.75 0.75-0.75h3c0.41 0 0.75 0.34 0.75 0.75s-0.34 0.75-0.75 0.75zm3-3h-6c-0.41 0-0.75-0.33997-0.75-0.74997s0.34-0.75 0.75-0.75h6c0.41 0 0.75 0.34 0.75 0.75s-0.34 0.74997-0.75 0.74997z"/>
 <path d="m21.99 18.95c-0.33-0.61-1.03-0.95-1.97-0.95-0.71 0-1.32 0.29-1.68 0.79s-0.44 1.17-0.22 1.84c0.43 1.3 1.18 1.59 1.59 1.64 0.06 0.01 0.12 0.01 0.19 0.01 0.44 0 1.12-0.19 1.78-1.18 0.53-0.77 0.63-1.54 0.31-2.15z"/>
</svg>
